X: 1
T: The Humours Of Ballyconnell
R: reel
M: 4/4
L: 1/8
K: Dmaj
A|defe dBAF|BFAF E3A|defe dBAF|BFAF D3:||
E|:F/2E/2DAD BDAD|G/2F/2EBE G/2F/2EBE|F/2E/2DAD FA A2|1 B/2c/2dAF D2DE:|2 B/2c/2dAF Defg||
|:a2af a3f|gece gece|faaf abag|1 faec defg:|2 faec d3||


Tune 1428	Setting 14805

